Suru++-Ubuntu/apps/symbolic/akregator-symbolic.svg

<svg width="16" height="16" version="1.1" xmlns="http://www.w3.org/2000/svg">
 <path d="m0.50004882 1.2456363v13.554463h15.000001v-13.554463zm14.583203 0.3079418h3.6e-4v12.938579h-3.6e-4zm-12.325558 1.1898745c1.419982 0 2.7768501 0.2793297 4.0709221 0.8382458 1.2940719 0.558918 2.4099295 1.3094803 3.3472591 2.2515583 0.937328 0.942075 1.683998 2.063462 2.240099 3.364088 0.5561 1.3006213 0.833949 2.6645173 0.833949 4.0916893h-2.014513c0-1.152984-0.223706-2.256891-0.671386-3.3114518-0.447679-1.0545585-1.0510985-1.9613465-1.8100543-2.7206295-0.7589558-0.759286-1.661275-1.364049-2.7070242-1.813994-1.0457517-0.449947-2.1420737-0.674967-3.2892517-0.674967zm0 3.5853761c1.252103 0 2.409704 0.310945 3.4729411 0.933136 1.0632394 0.622191 1.9042783 1.467604 2.5233348 2.536225 0.6190565 1.0686213 0.9284817 2.2324043 0.9284817 3.4908443h-2.0145146c0-1.363899-0.4789895-2.527682-1.4373019-3.4908443-0.9653073-0.970198-2.1229101-1.455204-3.4729411-1.455204zm1.395408 4.1443273c0.384724 0 0.713327 0.137229 0.98613 0.411424 0.272804 0.274188 0.4092756 0.604473 0.4092756 0.991144 0 0.393704-0.1364817 0.725843-0.4092756 0.996513-0.272803 0.270669-0.601406 0.406056-0.98613 0.406056-0.384726 0-0.713684-0.136886-0.98649-0.411068-0.272804-0.274184-0.408918-0.604829-0.408918-0.991501 0-0.386671 0.136118-0.716956 0.408918-0.991144 0.272806-0.274184 0.601764-0.411424 0.98649-0.411424z" style="fill:#808080"/>
</svg>

<svg xmlns="http://www.w3.org/2000/svg" width="16" height="16" version="1.1">
 <path style="fill:#808080" d="M 0.50004882,1.2456363 V 14.800099 H 15.50005 V 1.2456363 Z M 15.083252,1.5535781 h 3.6e-4 V 14.492157 h -3.6e-4 z M 2.7576938,2.7434526 c 1.419982,0 2.7768501,0.2793297 4.0709221,0.8382458 1.2940719,0.558918 2.4099295,1.3094803 3.3472591,2.2515583 0.937328,0.942075 1.683998,2.063462 2.240099,3.364088 0.5561,1.3006213 0.833949,2.6645173 0.833949,4.0916893 H 11.23541 c 0,-1.152984 -0.223706,-2.256891 -0.671386,-3.3114518 C 10.116345,8.9230237 9.5129255,8.0162357 8.7539697,7.2569527 7.9950139,6.4976667 7.0926947,5.8929037 6.0469455,5.4429587 5.0011938,4.9930117 3.9048718,4.7679917 2.7576938,4.7679917 Z m 0,3.5853761 c 1.252103,0 2.409704,0.310945 3.4729411,0.933136 1.0632394,0.622191 1.9042783,1.467604 2.5233348,2.536225 0.6190565,1.0686213 0.9284817,2.2324043 0.9284817,3.4908443 H 7.6679368 c 0,-1.363899 -0.4789895,-2.527682 -1.4373019,-3.4908443 C 5.2653276,8.8279917 4.1077248,8.3429857 2.7576938,8.3429857 Z m 1.395408,4.1443273 c 0.384724,0 0.713327,0.137229 0.98613,0.411424 0.272804,0.274188 0.4092756,0.604473 0.4092756,0.991144 0,0.393704 -0.1364817,0.725843 -0.4092756,0.996513 -0.272803,0.270669 -0.601406,0.406056 -0.98613,0.406056 -0.384726,0 -0.713684,-0.136886 -0.98649,-0.411068 -0.272804,-0.274184 -0.408918,-0.604829 -0.408918,-0.991501 0,-0.386671 0.136118,-0.716956 0.408918,-0.991144 0.272806,-0.274184 0.601764,-0.411424 0.98649,-0.411424 z"/>
</svg>
